X: 14
T:Marco's Reel
M:C|
L:1/8
R:reel
K:D
F3  E FEDF|A3  B AGFA|dAFA DFAd|cBB2 cBB2|
E3  _E =EFGA|cBB2 cBcB|AdcB AGFE|1 D2dD cDBD:|2 (3DED CE D3 e||
|:f3  e fedf|edce dAFA|dAFA DFAd|cBB2 cBB2|
g3  f gfeg|fedf edcB|(3ABA BA gece|1dDcD BDAD :|2 (3ded ce d4  ||
